X:1
T:Kanon Template
T:Winde, Gentle Evergreen
T:Dr. Hayes
%%score [ 1 2 3 ]
L:1/8
Q:1/4=80
M:3/4
K:G
V:1 treble nm="I"
V:2 treble nm="II"
V:3 treble nm="III"
V:1
"^Larghetto" (d>e) d2 c2 | B3 c d2 | (E>G) c2 (B>c) | (B2 A2) d2 | (d2 ^c2) =c2 | (c2 B2) (G>B) | %6
w: Winde, _ gen- tle|ev- er- green,|to _ form a _|shade _ A-|round _ the|tomb _ where _|
 A3/2 G/ F3 G | G6 :| %8
w: Soph- o- cles is|laid.|
V:2
 (B>c) (BG) (AF) | G3 A B2 | (c>B) A2 G2 | (G2 FA) (^GB) | (E2 A2) A2 | (A>F) G2 (d2 | %6
w: Sweet _ i- * vy, _|winde thy boughs,|and _ in- ter-|twine _ _ With _|blush- * ing|ro- * ses, and|
 c3/2) B/ TA3 G | G6 :| %8
w: _ the clus- t'ring|vine.|
V:3
 G2 G2 D2 | G4 G2 | C3/2 E/ F2 G2 | D4 B,2 | A,4 F2 | G4 B,2 | C3/2 C/ D3 D | [G,G]6 :| %8
w: Thus shall thy|last- ing|leaves with beau- ties|hung, Prove|grate- ful|em- blems|of the lays he|sung.|

